!!!!SEGMENT: pl-cz--iii-745--001-001_zebrowski-marcin-jozef--missa-pastoralis-kyrie.krn
!!!cenid: 17xx:2349
!!!COM: Żebrowski, Marcin Józef
!!!COM-rismID: pe30020322
!!!CDT: 1702-1770/06/29
!!!CNT: Polish
!!!OPR: Missa Pastoralis
!!!OTL: Kyrie
!!!OMV: 001
!!!PDT:
!!!AGN: Sacred; Mass
!!!YEC: Copyright 2022 Narodowy Instytut Fryderyka Chopina (https://polishscores.org)
!!!YEM: License CC-BY-4.0 (https://creativecommons.org/licenses/by/4.0)
!!!SMS-siglum: PL-CZ
!!!SMS-shelfmark: III-745
!!!SMS-shelfwork: 001-001 M
!!!SMS-variant:
!!!SMS-altvar:
!!!NIFC-rismSourceID: 300033497
!!!NIFC-rismChildID: 300033497
!!!NIFC-islandoraID: pl-cz:25279
!!!URL-pdf-islandora: https://repozytorium.nifc.pl/islandora/object/pl-cz%3A25279/datastream/PDF/view
!!!URL-scan: https://polish.musicsources.pl/pl/lokalizacje/galeria/rekopisy/1475 @EN{Scan on Polish Music Sources Website} @PL{Skany w portalu Dziedzictwo Muzyki Polskiej w otwartym dostępie}
!!!IIIF:
!!!ONB-nifc: UWAGA: części Mszy: 1. Kyrie, 2. Christe, 3. Et in terra, 4. Quoniam, 5. Patrem, 6. Et incarnatus, 7. Et resurrexit, 8. Sanctus, 9. Benedictus, 10. Osanna, 11. Agnus Dei
!!!AIN: 1 bass 2 clrno 1 organ 1 soprn 2 violn
!!!key: D
**kern	**fb	**kern	**kern	**kern	**text	**kern	**text	**text	**kern	**kern
*group	*	*group3	*group3	*group2	*	*group2	*	*	*group1	*group1
*part7	*	*part6	*part5	*part4	*	*part3	*	*	*part2	*part1
*staff7	*	*staff6	*staff5	*staff4	*	*staff3	*	*	*staff2	*staff1
*I"Organo	*	*I"Violino Secundo	*I"Violino Primo.	*I"Baſso.	*	*I"Soprano ō Canto.	*	*	*I"Clarino Secundo in D:	*I"Clarino Primo in D:
*I'org	*	*I'vl 2	*I'vl 1	*I'B	*	*I'S	*	*	*I'clno 2 in D	*I'clno 1 in D
*Iorgan	*	*Ivioln	*Ivioln	*Ibass	*	*Isoprn	*	*	*Iclrno	*Iclrno
*ICklav	*	*ICstr	*ICstr	*ICvox	*	*ICvox	*	*	*ICbras	*ICbras
*clefF4	*	*clefG2	*clefG2	*clefF4	*	*clefC1	*	*	*clefG2	*clefG2
*	*	*	*	*	*	*	*	*	*ITrd-1c-2	*ITrd-1c-2
*k[f#c#]	*	*k[f#c#]	*k[f#c#]	*k[f#c#]	*	*k[f#c#]	*	*	*k[f#c#]	*k[f#c#]
*D:	*	*D:	*D:	*D:	*	*D:	*	*	*D:	*D:
*M4/4	*	*M4/4	*M4/4	*M4/4	*	*M4/4	*	*	*M4/4	*M4/4
*met(c)	*	*met(c)	*met(c)	*met(c)	*	*met(c)	*	*	*met(c)	*met(c)
=1	=1	=1	=1	=1	=1	=1	=1	=1	=1	=1
*	*above	*	*	*	*	*	*	*	*	*
*	*	*^	*^	*	*	*	*	*	*	*
!LO:TX:a:i:t=Tutti	!	!LO:TX:t=P:problem=mixed beam	!	!	!	!	!	!	!	!	!	!LO:TX:a:i:t=andent
!LO:TX:a:i:t=andante	!	!LO:TX:a:i:t=andante	!	!LO:TX:a:i:t=and&colon;	!	!LO:TX:a:i:t=And&colon;	!	!LO:TX:a:i:t=Andante	!	!	!LO:TX:a:i:t=Andante	!
!	!	!	!	!	!	!	!	!LO:TX:a:t=P:problem=w źródle znaki przykluczowe cc# f#	!	!	!	!
4D\	.	8.a/L 8.d/	8.ff#/	8.ff#\L	8.ddd/	8.D/	Ky-	8.dd\	Ky-	A-	4.ff#\	4.aa\
.	.	16ff#\Jk	2.ryy	16ddd\Jk	2.ryy	16D/	-ri-	16dd\	-ri-	-gnus	.	.
8F#\L	X 6	8ff#\L	.	8ddd\L	.	8F#\	-e	8dd\	-e	De-	.	.
8D\J	.	8ff#\J	.	8aa\J	.	8D/	e-	8a\	e-	.	8ff#\	8aa\
!	!	!LO:TUP:a:problem=klamra łukowa	!	!LO:TUP:a:problem=klamra łukowa	!	!	!	!	!	!	!	!
8G\L	X 6	24ee\LL	.	24gg\LL	.	8G\	-lei-	8b\	-lei-	.	8gg\L	8bb\L
.	.	24ff#\	.	24aa\	.	.	.	.	.	.	.	.
.	.	24gg\J	.	24bb\J	.	.	.	.	.	.	.	.
8D\J	X 5	8ff#\J|	.	8aa\J|	.	8d\	-son	8a\	-son	-i	8ff#\J	8aa\J
8r	.	8r	.	8r	.	8r	.	8r	.	.	8r	8r
*	*	*	*	*	*	*	*	*	*ij	*	*	*
8F#\	X 6	8ff#\|	.	8dd\|	.	8F#\	e-	8a\	e-	qvi	8ff#\	8aa\
.	.	.	16ryy	.	16ryy	.	.	.	.	.	.	.
*	*	*v	*v	*	*	*	*	*	*	*	*	*
*	*	*	*v	*v	*	*	*	*	*	*	*
=2	=2	=2	=2	=2	=2	=2	=2	=2	=2	=2
.	.	.	.	.	.	8qqcc#/	.	.	.	.
!	!	!LO:TUP:a:problem=klamra łukowa	!LO:TUP:a:problem=klamra łukowa	!	!	!	!	!	!	!
8G\L	X 6	24ee\LL	24gg\LL	8G\	-lei-	8b\	-lei-	tol-	8gg\L	8bb\L
.	.	24ff#\	24aa\	.	.	.	.	.	.	.
.	.	24gg\J	24bb\J	.	.	.	.	.	.	.
8D\J	X 5	8ff#\J|	8aa\J|	8D/	-son	8a\	-son	-lis	8ff#\J	8aa\J
*	*	*	*	*	*	*	*Xij	*	*	*
4r	.	8r	8r	4r	.	4r	.	.	4r	4r
.	.	(8ff#\	(8ddd\	.	.	.	.	.	.	.
4r	.	8ee\L)	8ccc#\L)	4r	.	4r	.	.	4r	4r
.	.	(8gg\	(8bb\	.	.	.	.	.	.	.
8r	.	8ff#\)	8aa\)	8r	.	8r	.	.	8r	8r
*	*	*	*	*	*ij	*	*	*	*	*
8A\	X 7	8ee\J|	8gg\J|	8A\	e-	8cc#\	e-	pec-	8ee\	8gg\
!	!	!	!	!	!	!LO:LB:g=original	!	!	!	!
=3	=3	=3	=3	=3	=3	=3	=3	=3	=3	=3
8d\L	.	16.dd\LL	16.ff#\LL	8d\	-lei-	8a\	-lei-	-ca-	16.dd\LL	16.ff#\LL
.	.	32ee\JK	32gg\JK	.	.	.	.	.	32ee\JK	32gg\JK
.	.	(<16qqdd/LL	16qqff#/LL	.	.	.	.	.	.	.
.	.	16qqee/JJ)	16qqgg/JJ	.	.	.	.	.	.	.
8D\J	.	8ff#\J	8aa\J	8D/	-son	8a\	-son	-ta.	8ff#\J	8aa\J
4r	.	8r	8r	4r	.	4r	.	.	4r	4r
.	.	8ff#\|	8ddd\|	.	.	.	.	.	.	.
4r	.	(16ff#\LL	16ddd\LL	4r	.	4r	.	.	4r	4r
.	.	16ee\)	(16ccc#\	.	.	.	.	.	.	.
.	.	(16ee\	16ccc#\)	.	.	.	.	.	.	.
.	.	16gg\JJ)	16bb\JJ	.	.	.	.	.	.	.
8r	.	(16ggT\LL	16bbT\LL	8r	.	8r	.	.	8r	8r
.	X 6	16ff#\)	(16aa\	.	.	.	.	.	.	.
8c#\	X 5	(16ff#\	16aa\)	8c#\	e-	(16ff#\LL	e-	mun-	16ff#\LL	16aa\LL
.	4 9	16eeT\JJ)	16ggT\JJ	.	.	16ee\JJ)	.	.	16ee\JJ	16gg\JJ
!	!	!LO:LB:g=original	!	!	!	!	!	!	!LO:LB:g=original	!
=4	=4	=4	=4	=4	=4	=4	=4	=4	=4	=4
.	.	8qqff#/	8qqgg/	.	.	.	.	.	.	.
!	!	!	!	!	!	!	!	!	!LO:TX:t=P:problem=dźwięk niewidoczny - defekt źródła	!
8d\L	.	8ee\L	8gg\L	8d\	-lei-	4ee\	-lei-	.	8ee\L	8gg\L
8D\	3 8	8dd\J	8ff#\J	8D/	-son	.	.	.	8dd\J	8ff#\J
*	*	*	*	*	*Xij	*	*	*	*	*
8F#\	X 6	8r	8r	4r	.	8dd\	-son	-di	8r	8r
8A\J	.	8cc#\	8ee\	.	.	8r	.	.	16a/LL	16a/LL
.	.	.	.	.	.	.	.	.	16a/JJ	16a/JJ
8d\L	.	(16dd\LL	(16ff#\LL	16d\	Ky-	4.aT\	Ky-	mi-	8a/	8a/
.	.	16ee\JJ)	16gg#X\JJ)	16D/	-ri-	.	.	.	.	.
.	.	8qqee/	8qqbb/	.	.	.	.	.	.	.
[8D\J	.	4ff#\	4aa\	8D/	-e	.	.	.	8r	8r
!	!	!	!	!LO:LB:g=original	!	!	!	!	!	!
16D\LL]	.	.	.	8r	.	.	.	.	8a/	8a/
16A\	.	.	.	.	.	.	.	.	.	.
16G\	4 2	8cc#\	8ee\	(16G\LL	e-	8a\	-ri-	-se-	8r	8r
16A\JJ	.	.	.	16A\JJ)	.	.	.	.	.	.
=5	=5	=5	=5	=5	=5	=5	=5	=5	=5	=5
*	*	*	*	*	*	*2\right	*	*	*	*
8d\L	.	(16dd\LL	(16ff#\LL	8d\	-lei-	2a\	-e	-re-	8a/	8a/
.	.	16ee\JJ)	16gg#X\JJ)	.	.	.	.	.	.	.
.	.	8qqee/	8qqaa/	.	.	.	.	.	.	.
[8D\J	.	4ff#\	4aa\	8D/	-son	.	.	.	8r	8r
16D\LL]	.	.	.	8r	.	.	.	.	8a/	8a/
16A\	.	.	.	.	.	.	.	.	.	.
!	!	!	!LO:LB:g=original	!	!	!	!	!	!	!
16G\	4 2	8cc#\	8ee\	(16G\LL	e-	.	.	.	8r	8r
16A\JJ	.	.	.	16A\JJ)	.	.	.	.	.	.
!LO:TX:t=P:problem=mixed beam	!	!	!	!	!	!	!	!	!	!
8D/L	.	8dd\	8ff#\L|	(8d\L	-le-	4a\	e-	-re	8a/L	8ff#\
!	!	!	!LO:TUP:a:problem=klamra łukowa	!	!	!	!	!	!	!
8C#/	X 6	4a/	24ee\L	(8c#\J)	.	.	.	.	8a/J	4aa\
.	.	.	24aa\	.	.	.	.	.	.	.
.	.	.	24ff#\JJ	.	.	.	.	.	.	.
.	.	.	8qqee/	.	.	.	.	.	.	.
8BB/	X 7	.	4ddT\	8B\L)	.	(8a\L	-le-	no-	4ee\	.
!	!	!	!	!	!	!	!	!	!	!LO:TX:t=P:problem=dźwięk niewidoczny - defekt źródła
.	.	8qqa/	.	.	.	.	.	.	.	.
8E\J	7 3#	8g#Xt/	.	8e\J|	-i-	8g#X\J)	-i-	.	.	8ryy
.	.	.	.	.	.	.	.	.	.	.
!	!	!	!	!	!	!LO:LB:g=original	!	!	!	!LO:LB:g=original
=6	=6	=6	=6	=6	=6	=6	=6	=6	=6	=6
4AA/	.	(16a\LL	(16cc#\LL	4A\	-son	4a\	-son	-bis	4ee\	4aa\
.	.	16cc#\)	16a\	.	.	.	.	.	.	.
.	.	(16cc#\	16ee\	.	.	.	.	.	.	.
.	.	16ee\JJ)	16cc#\JJ)	.	.	.	.	.	.	.
8r	.	(16ee\LL	(16aa\LL	8r	.	8r	.	.	8r	8r
.	.	16cc#\)	16ee\	.	.	.	.	.	.	.
8A\	.	(16a\	16cc#\	8A\	e-	8ee\	e-	no-	8a/	8ee\
.	.	16cc#\JJ)	16a\JJ)	.	.	.	.	.	.	.
8d\L	.	8ff# 8a 8d/	8ff#\	(8d\L	-le-	(8ff#\L	-le-	.	8a/L	8ff#\
!	!	!LO:TUP:a:problem=klamra łukowa	!	!	!	!	!	!	!	!
8c#\	X 6	24ee\LL	4aa\	8c#\J)	.	8ee\J)	.	.	8a/J	4aa\
.	.	24aa\	.	.	.	.	.	.	.	.
.	.	24ff#\JJ	.	.	.	.	.	.	.	.
.	.	8qqee/	.	.	.	8qqee/	.	.	.	.
8B\	X 7	4ddT\	.	(8B\L	-i-	4dd\	-i-	.	4ee\	.
8E\J	7 3#	.	8gg#Xt\	8E\J)	.	.	.	.	.	8gg#X\
!LO:LB:g=original	!	!	!	!	!	!	!	!	!	!
=7	=7	=7	=7	=7	=7	=7	=7	=7	=7	=7
.	.	.	.	.	.	8qqdd/	.	.	.	.
4AA/	.	16cc#\LL	(16a\LL	4A\	-son.	4cc#\	-son	-bis	4ee\	4aa\
.	.	16cc#\JJ	16aa\JJ)	.	.	.	.	.	.	.
.	.	16r	16r	.	.	.	.	.	.	.
.	.	16cc#\|	16ee\|	.	.	.	.	.	.	.
4r	.	(16cc#\LL	(16ee\LL	4r	.	4r	.	.	4r	4r
.	.	16a\)	16cc#\	.	.	.	.	.	.	.
.	.	(16a\	16cc#\	.	.	.	.	.	.	.
.	.	16cc#\JJ)	16a\JJ)	.	.	.	.	.	.	.
!	!	!LO:TX:t=P:problem=mixed beam	!	!	!	!	!	!	!	!
4AA/	.	16c#/LL	(16a\LL	2r	.	2r	.	.	4a/	4ee\
.	.	16cc#\JJ|>	16ee\JJ)	.	.	.	.	.	.	.
.	.	16r	16r	.	.	.	.	.	.	.
!	!	!LO:TX:t=P:problem= 16 przekreślona	!	!	!	!	!	!	!	!
.	.	16a/|	16cc#\|	.	.	.	.	.	.	.
!	!	!LO:LB:g=original	!	!	!	!	!	!	!	!
4r	.	(16a/LL	(16cc#\LL	.	.	.	.	.	4r	4r
.	.	16e/)	16a\	.	.	.	.	.	.	.
.	.	(16e/	16a\	.	.	.	.	.	.	.
.	.	16c#/JJ)	16e\JJ)	.	.	.	.	.	.	.
=8	=8	=8	=8	=8	=8	=8	=8	=8	=8	=8
!	!	!	!	!LO:TX:a:t=2	!	!	!	!	!	!
4AA/|	.	(8.c#/L	(8.e/L	0r	.	0r	.	.	4a/	4ee\
.	.	16d/K)	16f#/K	.	.	.	.	.	.	.
4AA/|	.	(8.c#/	8.e/	.	.	.	.	.	4r	4r
.	.	16d/Jk)	16f#/Jk)	.	.	.	.	.	.	.
4AA/|	.	(8.e/L	(8.c#/L	.	.	.	.	.	4a/	4ee\
.	.	16f#/K)	16d/K	.	.	.	.	.	.	.
4AA/|	.	(8.e/	8.c#/	.	.	.	.	.	4r	4r
.	.	16f#/Jk)	16d/Jk)	.	.	.	.	.	.	.
=9	=9	=9	=9	=9	=9	=9	=9	=9	=9	=9
8AA/L	.	(16.c#/LL	(16.e/LL	.	.	.	.	.	8a/L	8ee\L
.	.	32d/K)	32f#/K	.	.	.	.	.	.	.
8AA/	.	(16.c#/	16.e/	.	.	.	.	.	16a/L	16ee\L
.	.	.	.	.	.	.	.	.	16a/JJ	16ee\JJ
.	.	32d/JJk)	32f#/JJk)	.	.	.	.	.	.	.
8AA/	.	(16.c#/LL	(16.e/LL	.	.	.	.	.	16a/LL	16ee\LL
.	.	.	.	.	.	.	.	.	16a/	16ee\
.	.	32d/K)	32f#/K	.	.	.	.	.	.	.
8AA/J	.	(16.c#/	16.e/	.	.	.	.	.	16a/	16ee\
.	.	.	.	.	.	.	.	.	16a/JJ	16ee\JJ
.	.	32d/JJk)	32f#/JJk)	.	.	.	.	.	.	.
*	*	*	*	*	*	*	*	*	*	*2\right
2AA;</	.	2c#;</	2e;</	.	.	.	.	.	2a;</	2ee;\
=||	=||	=||	=||	=||	=||	=||	=||	=||	=||	=||
*-	*-	*-	*-	*-	*-	*-	*-	*-	*-	*-
!!!system-decoration: [(g1)][(g2)][(g3)][(s7)]
!!!RDF**kern: > = above
!!!RDF**kern: < = below
!!!RDF**kern: | = vertical stroke
!!!ENC: Filip Voros
!!!END: 2022-03-30
!!!EED: Antoni Szymański
!!!EEV: 2022-04-07
